X:1
T: Jan Borluut
N: A0364A
O: Europa, Mitteleuropa, Deutschland
N: Melodie muendlich durch die Familie Westendorp in Elberfeld,
N: zuerst mitgetheilt in der Zs. des Bergischen Geschichtsvereins II
N: (1865) durch Dr. Crecelius.
R: Romanze, Ballade, Lied, Personenlied
M: 6/4
L: 1/4
K: G
A | G2A_B2=F | _B2cd2
d | =f2df2g | d2Ad2
_e | g2_e_B2G | _B2cd2
G | _B2cd2G | c2_BA2

